client/src/shared/assets/icons/boxes.svg

<svg width="22" height="24" viewBox="0 0 22 24" fill="none" xmlns="http://www.w3.org/2000/svg">
<path d="M9.81084 14.0599V23.6813L1.48525 18.871C0.749691 18.446 0.296631 17.661 0.296631 16.8115V8.56595L9.81084 14.0599Z" fill="#777777"/>
<path d="M0.613526 6.00231L11.0001 12L15.1644 9.59533L4.45976 3.4104L1.48525 5.12901C1.11652 5.34205 0.81879 5.64556 0.613526 6.00231Z" fill="#777777"/>
<path d="M17.5424 8.22221L21.3867 6.00231C21.1814 5.64556 20.8837 5.34205 20.515 5.12901L12.1901 0.319047C11.4538 -0.106349 10.5464 -0.106349 9.81018 0.319047L6.83699 2.03689L17.5424 8.22221Z" fill="#777777"/>
<path d="M21.7036 8.56595L12.1895 14.0598L12.1894 23.6813L20.515 18.871C21.2505 18.446 21.7036 17.661 21.7036 16.8115V8.56595Z" fill="#777777"/>
</svg>

<svg xmlns="http://www.w3.org/2000/svg" width="22" height="24" fill="currentColor" viewBox="0 0 22 24"><path fill="currentColor" d="M9.81 14.06v9.621l-8.325-4.81a2.38 2.38 0 0 1-1.188-2.06V8.567zM.614 6.002 11 12l4.164-2.405L4.46 3.41 1.485 5.13a2.4 2.4 0 0 0-.871.873M17.542 8.222l3.845-2.22a2.4 2.4 0 0 0-.872-.873L12.19.319a2.38 2.38 0 0 0-2.38 0L6.837 2.037zM21.704 8.566 12.19 14.06v9.621l8.325-4.81a2.38 2.38 0 0 0 1.189-2.06z"/></svg>
